assets/icons/regular/txt-icon-regular.svg

<svg width="32" height="32" viewBox="0 0 32 32" fill="none" xmlns="http://www.w3.org/2000/svg">
<path fill-rule="evenodd" clip-rule="evenodd" d="M4 2.79365V29.2064C4 30.7492 5.23122 32 6.75 32H25.25C26.7688 32 28 30.7492 28 29.2064V7.35127C28 6.60502 27.7061 5.88979 27.1838 5.36503L22.6478 0.807413C22.133 0.29013 21.4381 0 20.714 0H6.75C5.23122 0 4 1.25076 4 2.79365ZM5.75 29.2064V2.79365C5.75 2.2326 6.19772 1.77778 6.75 1.77778H20.375V7.87302C20.375 8.92499 21.2145 9.77778 22.25 9.77778H26.25V29.2064C26.25 29.7674 25.8023 30.2222 25.25 30.2222H6.75C6.19772 30.2222 5.75 29.7674 5.75 29.2064ZM26.25 8V7.35127C26.25 7.07991 26.1431 6.81982 25.9532 6.629L22.125 2.78254V7.87302C22.125 7.94315 22.181 8 22.25 8H26.25Z" fill="#9D9C9B"/>
<path fill-rule="evenodd" clip-rule="evenodd" d="M8 13C8 12.25 8.25 12 9 12H23C23.75 12 24 12.25 24 13C24 13.75 23.75 14 23 14H9C8.25 14 8 13.75 8 13Z" fill="#C9C7C5"/>
<path fill-rule="evenodd" clip-rule="evenodd" d="M8 17C8 16.25 8.25 16 9 16H23C23.75 16 24 16.25 24 17C24 17.75 23.75 18 23 18H9C8.25 18 8 17.75 8 17Z" fill="#C9C7C5"/>
<path fill-rule="evenodd" clip-rule="evenodd" d="M8 21C8 20.25 8.25 20 9 20H23C23.75 20 24 20.25 24 21C24 21.75 23.75 22 23 22H9C8.25 22 8 21.75 8 21Z" fill="#C9C7C5"/>
<path fill-rule="evenodd" clip-rule="evenodd" d="M8 25C8 24.25 8.25 24 9 24H23C23.75 24 24 24.25 24 25C24 25.75 23.75 26 23 26H9C8.25 26 8 25.75 8 25Z" fill="#C9C7C5"/>
</svg>

<svg xmlns="http://www.w3.org/2000/svg" width="32" height="32" fill="none" viewBox="0 0 32 32"><path fill="#9D9C9B" fill-rule="evenodd" d="M4 2.794v26.412C4 30.75 5.231 32 6.75 32h18.5c1.519 0 2.75-1.25 2.75-2.794V7.351c0-.746-.294-1.461-.816-1.986L22.648.807A2.73 2.73 0 0 0 20.714 0H6.75C5.231 0 4 1.25 4 2.794m1.75 26.412V2.794c0-.561.448-1.016 1-1.016h13.625v6.095c0 1.052.84 1.905 1.875 1.905h4v19.428c0 .561-.448 1.016-1 1.016H6.75c-.552 0-1-.455-1-1.016M26.25 8v-.649c0-.271-.107-.531-.297-.722l-3.828-3.846v5.09c0 .07.056.127.125.127z" clip-rule="evenodd"/><path fill="#C9C7C5" fill-rule="evenodd" d="M8 13c0-.75.25-1 1-1h14c.75 0 1 .25 1 1s-.25 1-1 1H9c-.75 0-1-.25-1-1M8 17c0-.75.25-1 1-1h14c.75 0 1 .25 1 1s-.25 1-1 1H9c-.75 0-1-.25-1-1M8 21c0-.75.25-1 1-1h14c.75 0 1 .25 1 1s-.25 1-1 1H9c-.75 0-1-.25-1-1M8 25c0-.75.25-1 1-1h14c.75 0 1 .25 1 1s-.25 1-1 1H9c-.75 0-1-.25-1-1" clip-rule="evenodd"/></svg>
